remix/Weather/sun-line.svg

<svg viewBox="0 0 24 24" fill="currentColor" xmlns="http://www.w3.org/2000/svg"><path d="M12 18C8.68629 18 6 15.3137 6 12C6 8.68629 8.68629 6 12 6C15.3137 6 18 8.68629 18 12C18 15.3137 15.3137 18 12 18ZM12 16C14.2091 16 16 14.2091 16 12C16 9.79086 14.2091 8 12 8C9.79086 8 8 9.79086 8 12C8 14.2091 9.79086 16 12 16ZM11 1H13V4H11V1ZM11 20H13V23H11V20ZM3.51472 4.92893L4.92893 3.51472L7.05025 5.63604L5.63604 7.05025L3.51472 4.92893ZM16.9497 18.364L18.364 16.9497L20.4853 19.0711L19.0711 20.4853L16.9497 18.364ZM19.0711 3.51472L20.4853 4.92893L18.364 7.05025L16.9497 5.63604L19.0711 3.51472ZM5.63604 16.9497L7.05025 18.364L4.92893 20.4853L3.51472 19.0711L5.63604 16.9497ZM23 11V13H20V11H23ZM4 11V13H1V11H4Z"/></svg>

<svg viewBox="0 0 24 24" xmlns="http://www.w3.org/2000/svg"><path fill="none" d="M0 0h24v24H0Z"/><path d="M12 18v0c-3.32 0-6-2.69-6-6 0-3.32 2.68-6 6-6v0c3.31 0 6 2.68 6 6 0 3.31-2.69 6-6 6Zm0-2v0c2.2 0 4-1.8 4-4 0-2.21-1.8-4-4-4v0c-2.21 0-4 1.79-4 4 0 2.2 1.79 4 4 4ZM11 1h2v3h-2V1Zm0 19h2v3h-2v-3ZM3.51 4.929l1.41-1.42 2.12 2.12 -1.42 1.41 -2.13-2.12Zm13.43 13.435l1.41-1.42 2.12 2.12 -1.42 1.41 -2.13-2.13Zm2.12-14.85l1.41 1.415 -2.13 2.12 -1.42-1.42L19.04 3.5ZM5.62 16.95l1.41 1.41 -2.13 2.12 -1.42-1.42 2.12-2.13ZM22.98 11v2h-3v-2h3Zm-19 0v2h-3v-2h3Z"/></svg>
